resources/svg/multiple.svg

<svg viewBox="0 0 24 24"><path fill="none" stroke="currentColor" stroke-width="2" d="M19 15h4V1H9v4m6 14h4V5H5v4M1 23h14V9H1v14h0z"/></svg>

<svg xmlns="http://www.w3.org/2000/svg" viewBox="0 0 24 24" fill="currentColor"><path fill="none" stroke="currentColor" stroke-width="2" d="M19,15 L23,15 L23,1 L9,1 L9,5 M15,19 L19,19 L19,5 L5,5 L5,9 M1,23 L15,23 L15,9 L1,9 L1,23 L1,23 L1,23 Z"/></svg>
